X: 30222
T: Old Hag, You Have Killed Me
R: jig
M: 6/8
K: Dmixolydian
|:FDD c2A|ded cAG|A3 ABG|A3 ABG|
F2D c2A|ded cAD|G3 GcA|1 G3 GFE:|2 G3 GBd||
f3 g3|afd cAG|A3 ABG|A3 AB/c/d|
f3 g3|afd cAD|G3 GcA|G3 GB/c/d|
f3 g3|afd cAG|A3 ABG|A3 AB/c/d|
f2d g3|afd cAD|G3 GcA|G3 GFE||

